_includes/icons/color-resume.svg

<svg fill="#666" height="50" viewBox="0 0 48 48" width="50" xmlns="http://www.w3.org/2000/svg"><path d="m8 3h32v42h-32z" fill="#90caf9"/><path d="m20 12.5c0 1.378906-1.117187 2.5-2.5 2.5-1.382812 0-2.5-1.121094-2.5-2.5 0-1.382812 1.117188-2.5 2.5-2.5 1.382813 0 2.5 1.117188 2.5 2.5m2 5.828125s-1.246094-2.328125-4.5-2.328125-4.5 2.328125-4.5 2.328125v1.671875h9zm13-6.328125h-9v2h9zm0 5h-9v2h9zm0 9h-5v2h5zm0 5h-5v2h5zm-8-5h-14v2h14zm8 10h-5v2h5zm-8 0h-14v2h14zm-3-5h-11v2h11z" fill="#1976d2"/></svg>

<svg xmlns="http://www.w3.org/2000/svg" viewBox="0 0 48 48" width="50" height="50" fill="#666"><path d="M 8 3 L 40 3 L 40 45 L 8 45 Z" fill="#90caf9"/><path d="M 20 12.5 C 20 13.878906 18.882813 15 17.5 15 C 16.117188 15 15 13.878906 15 12.5 C 15 11.117188 16.117188 10 17.5 10 C 18.882813 10 20 11.117188 20 12.5 M 22 18.328125 C 22 18.328125 20.753906 16 17.5 16 C 14.246094 16 13 18.328125 13 18.328125 L 13 20 L 22 20 Z M 35 12 L 26 12 L 26 14 L 35 14 Z M 35 17 L 26 17 L 26 19 L 35 19 Z M 35 26 L 30 26 L 30 28 L 35 28 Z M 35 31 L 30 31 L 30 33 L 35 33 Z M 27 26 L 13 26 L 13 28 L 27 28 Z M 35 36 L 30 36 L 30 38 L 35 38 Z M 27 36 L 13 36 L 13 38 L 27 38 Z M 24 31 L 13 31 L 13 33 L 24 33 Z" fill="#1976d2"/></svg>
